X:1
T:Shipton, 87.87 D
T:Ira David Sankey, 1876
T:Shipton, 87.87 D
T:Public Domain
C:Ira David Sankey, 1876
Z:Public Domain
%%score ( 1 2 ) ( 3 4 )
L:1/8
M:3/4
K:F
V:1 treble 
V:2 treble 
V:3 bass 
V:4 bass 
V:1
 [FA][GB] | [Ac]3 [FA] [GB][Bd] | [Ac]2 [FA]2 [FA][FA] | [FB]3 [FA] [FG]F | %4
 ([FA]2 [EG]2) [FA][GB] | [Ac]3 [FA] [GB][Bd] | [Ac]2 [FA]2 F[FG] | [FA][FB] [FA]2 [EG]2 | %8
 F4 [Ec][Ec] | [Fc]3 [Fc] [Fd][Be] | [Af]2 [Fc]2 [Fc][Fc] | [Ec]3 [Ec] [Ge][Fd] | %12
 ([Ec]2 [GB]2) [FA][GB] | [Ac]3 [Fc] [Fd][Be] | [Af]2 [Fc]2 [FB][Fd] | [Fc]F [FA]2 [EG]2 | F4 |] %17
V:2
 x2 | x6 | x6 | x5 F | x6 | x6 | x4 F x | x6 | F4 x2 | x6 | x6 | x6 | x6 | x6 | x6 | x F x4 | F4 |] %17
V:3
 [F,C][F,C] | [F,C]3 [F,C] [F,C][F,C] | [F,C]2 [F,C]2 [F,C][F,C] | [F,D]3 [F,C] [B,,D][=B,,D] | %4
 [C,C]4 [F,C][F,C] | [F,C]3 [F,C] [F,C][F,C] | [F,C]2 [F,C]2 [F,A,][F,B,] | %7
 [F,C][B,,D] [C,C]2 [C,B,]2 | [F,A,]4 [C,G,][C,G,] | [F,A,]3 [A,C] B,[G,C] | %10
 [F,C]2 [F,A,]2 [F,A,][F,A,] | [G,C]3 [G,C] [G,=B,][G,B,] | [C,C]4 [F,C][F,C] | %13
 [F,C]3 [A,C] B,[G,C] | [F,C]2 [F,A,]2 [B,,D][B,,B,] | [C,A,][C,A,] [C,C]2 [C,B,]2 | [F,A,]4 |] %17
V:4
 x2 | x6 | x6 | x6 | x6 | x6 | x6 | x6 | x6 | x4 B, x | x6 | x6 | x6 | x4 B, x | x6 | x6 | x4 |] %17

